X:1
T: Mickey Chewing Bubblegum
T: Bill Sullivan's Polka
T: Denis Murphy's (2)
O: Ireland
C: R-108
M: C|
Z:
R: polka
K: A
"A"a4 a3f| e2c2 a3f| e2c2 a2c2| "D"B2A2 "E"F2E2|
"A"a4 a3f| e2c2 a3e| c2e2 "E"B2Bc| "A"B2A2 A4:|
|:\
"A"c2e2 e2c2| "D"d2f2 f2d2| "A"c2e2 "E"B2Bc| "D"B2A2 "E"F2E2|
"A"c2e2 e2c2| "D"d2f2 f2fd| "A"c2e2 "E"B2Bc| "A"B2A2 A4 :|
%
